X: 02113
T: RICKETY JIG
C: Bob McQuillen July'74
B: Bob's Note Book 1&2 #113
R: jig
Z: 2019 John Chambers <jc:trillian.mit.edu>
M: 6/8
L: 1/8
K: G
D \
| GFG AGF | GFG ABc | d2g bag | fed cBA |\
| GFG AGF | GFG ABc | def gdc | BGG G2 :|
|: A \
| B2B GAB | cBc ABc | def gfg | a2f dga |\
| b2b a2a | gag fed | e2g dcB | AGF G2 :|
%%begintext align
%% For Rick MacAdam
%%endtext

%%sep 1 1 500

%%sep 1 1 500

